X: 26
T:Mouth of the Tobique
S:Don Messer Anthology + 3rd part
M:4/4
L:1/8
Q:1/4=200
K:G
(3DEF|GFGA Bded|BdBG DGBG|AGFE DFAc|BdBG D2 (3DEF|
GFGA  Bded|BdBG DGBG|AGFE DFAc|BGGF G2:|
|:Bd|gfga gfeg|fdAd fagf|eGFE DFAc|BGBc d2ef|
gfga gfef|fdAd fagf|eGFE DFAc|BGGF G2:|
|:DEF|GGBG GcGG|BGGc GGBG|FGAB cAFD|GABc dDEF|
GGBG GcGG|BGGc GGBG|FGAB cAFD|GBAF G2:|
